X:1
T:The Miller's Maggot
R:jig
M:6/8
L:1/8
K:G
|:~G2A ~B2A|~B2A BGE|~G2A ~B2A|Bee dBA|
|~G2A ~B2A|~B2A BGE|gfe dBA|Bee dBA:|
|:~e2f fge|~d2B BAG|~e2f fge|aga bge|
|~e2f fge|~d2B BAG|~A2B cBA|Bee dBA:|